X: 21925
T: Kitchenpiper, The
R: hornpipe
M: 4/4
K: Dmajor
|:f|AddA dddA|defd edBA|BggA ffAe|eBcB Az a2|
AddA dddA|defd edBA|gBdg fAdf|eddc d2:|
|:fg|adff AddA|ffAf fAdd|BggA ffAe|eBcB A2 fg|
adff AddA|ffAf fAdd|gBdg fAdf|eddc d2:|
|:AddA dddA|dcde f2 ed|ge fd/e/ c2|dB c2 ee|
AddA dddA|dcde f2 ed|gBdg fAdf|eddc d2:|
fg|adgg AffA|eeBd BgBA|BggA ffAe|eBcB A2 fg|
[1 adgg AffA|eeBd BgBA|gBdg fAdf|eddc d2:|
[2 AddB eecf|fdgg afdB|gBdg fAdf|eddc d2||

